X: 5
T:Constant Billy, Headington 2
M:6/8
L:1/8
S:RKS
A:Headington
P:A(AB)4
K:G
P:A
|:D|G>Bd B>GB|c>Bc A>FD|B>AG E>DC|D>EF G2:|
P:B
|:D|B>cd e>cB|A>Bc d>BG|B>cd e>cB|A>Bc d2D|
G>Bd B>GB|c>Bc A>FD|B>AG E>DC|D>EF G2:|
